static/assets/img/icons/theme/shopping/rouble.svg

<svg height="24" viewBox="0 0 24 24" width="24" xmlns="http://www.w3.org/2000/svg"><g fill="none" fill-rule="evenodd"><path d="m0 0h24v24h-24z" opacity="0"/><g fill="#000"><path d="m5.3618034 16.2763932.5-1c.08469601-.169392.25782757-.2763932.44721359-.2763932h9.88196601c.2761424 0 .5.2238576.5.5 0 .0776225-.0180725.1541791-.0527864.2236068l-.5 1c-.084696.169392-.2578276.2763932-.4472136.2763932h-9.88196601c-.27614237 0-.5-.2238576-.5-.5 0-.0776225.01807255-.1541791.05278641-.2236068z" opacity=".3"/><path d="m8 3.716h5.107c.935338 0 1.7786629.08433249 2.53.253s1.3953306.44466475 1.932.828c.5366693.38333525.9506652.87399701 1.242 1.472s.437 1.31866245.437 2.162c0 .90467119-.168665 1.6636636-.506 2.277s-.7934971 1.1078315-1.3685 1.4835-1.2458295.6478325-2.0125.8165-1.579329.253-2.438.253h-2.231v6.739h-2.692zm4.716 7.107c.4753357 0 .9276645-.0344997 1.357-.1035s.812665-.1916658 1.15-.368.6056657-.4178318.805-.7245.299-.70533088.299-1.196c0-.47533571-.0996657-.8624985-.299-1.1615-.1993343-.29900149-.4638317-.53283249-.7935-.7015s-.7053312-.27983306-1.127-.3335c-.4216688-.05366693-.8548311-.0805-1.2995-.0805h-2.116v4.669z"/></g></g></svg>

<svg width="24px" height="24px" viewBox="0 0 24 24" version="1.1" xmlns="http://www.w3.org/2000/svg" xmlns:xlink="http://www.w3.org/1999/xlink">
    <title>Icon For Rouble</title>
    <g stroke="none" stroke-width="1" fill="none" fill-rule="evenodd">
        <rect opacity="0" x="0" y="0" width="24" height="24"></rect>
        <path d="M5.3618034,16.2763932 L5.8618034,15.2763932 C5.94649941,15.1070012 6.11963097,15 6.30901699,15 L16.190983,15 C16.4671254,15 16.690983,15.2238576 16.690983,15.5 C16.690983,15.5776225 16.6729105,15.6541791 16.6381966,15.7236068 L16.1381966,16.7236068 C16.0535006,16.8929988 15.880369,17 15.690983,17 L5.80901699,17 C5.53287462,17 5.30901699,16.7761424 5.30901699,16.5 C5.30901699,16.4223775 5.32708954,16.3458209 5.3618034,16.2763932 Z" fill="#000000" opacity="0.3"></path>
        <path d="M8,3.716 L13.107,3.716 C14.042338,3.716 14.8856629,3.80033249 15.637,3.969 C16.3883371,4.13766751 17.0323306,4.41366475 17.569,4.797 C18.1056693,5.18033525 18.5196652,5.67099701 18.811,6.269 C19.1023348,6.86700299 19.248,7.58766245 19.248,8.431 C19.248,9.33567119 19.079335,10.0946636 18.742,10.708 C18.404665,11.3213364 17.9485029,11.8158315 17.3735,12.1915 C16.7984971,12.5671685 16.1276705,12.8393325 15.361,13.008 C14.5943295,13.1766675 13.781671,13.261 12.923,13.261 L10.692,13.261 L10.692,20 L8,20 L8,3.716 Z M12.716,10.823 C13.1913357,10.823 13.6436645,10.7885003 14.073,10.7195 C14.5023355,10.6504997 14.885665,10.5278342 15.223,10.3515 C15.560335,10.1751658 15.8286657,9.9336682 16.028,9.627 C16.2273343,9.3203318 16.327,8.92166912 16.327,8.431 C16.327,7.95566429 16.2273343,7.5685015 16.028,7.2695 C15.8286657,6.97049851 15.5641683,6.73666751 15.2345,6.568 C14.9048317,6.39933249 14.5291688,6.28816694 14.1075,6.2345 C13.6858312,6.18083307 13.2526689,6.154 12.808,6.154 L10.692,6.154 L10.692,10.823 L12.716,10.823 Z" fill="#000000"></path>
    </g>
</svg>
